public/light-ucodia-logo.svg

<?xml version="1.0" encoding="UTF-8" standalone="no"?>
<!DOCTYPE svg PUBLIC "-//W3C//DTD SVG 1.1//EN" "http://www.w3.org/Graphics/SVG/1.1/DTD/svg11.dtd">
<svg width="100%" height="100%" viewBox="0 0 617 200" version="1.1" xmlns="http://www.w3.org/2000/svg" xmlns:xlink="http://www.w3.org/1999/xlink" xml:space="preserve" xmlns:serif="http://www.serif.com/" style="fill-rule:evenodd;clip-rule:evenodd;stroke-linejoin:round;stroke-miterlimit:2;">
    <path d="M524.31,179.22C529.773,128.368 530.776,77.136 527.31,26.11C526.73,17.52 534.43,9.92 543.31,6.89C552.19,3.86 561.92,4.38 571.31,4.95L597,6.47C600.68,6.69 604.68,7.03 607.37,9.32C609.6,11.22 610.46,14.05 611.14,16.76C624.92,71.16 607.48,128.08 612.29,183.76C612.56,186.88 612.87,190.16 611.45,193.01C610.03,195.86 606.18,198.01 603.08,196.61C599.36,194.96 599.5,190.17 600.08,186.44C602.904,169.072 603.575,151.422 602.08,133.89C601.93,132.2 601.69,130.35 600.36,129.15C599.03,127.95 597.36,127.79 595.64,127.6C576.11,125.341 556.376,125.519 536.89,128.13C537.488,151.21 536.062,174.299 532.63,197.13C524.74,196.3 523.44,186.45 524.21,179.26M599.58,116.54C600.384,116.568 601.186,116.439 601.94,116.16C603.51,115.43 603.94,113.6 604.14,112C608.042,83.105 607.367,53.775 602.14,25.09C601.73,22.89 601.14,20.48 599.25,19.09C597.69,17.96 595.57,17.76 593.58,17.6L566.58,15.48C560.68,15.01 554.58,14.57 548.98,16.35C543.38,18.13 538.43,22.76 538.61,28.15C539.61,58.15 540.67,88.22 537.06,118.03L569.2,117.27L599.49,116.55M475.29,192.07C484.86,133.07 473.91,72.95 476.99,13.38C477.12,10.96 477.32,8.38 478.89,6.38C480.46,4.38 483.89,3.5 485.82,5.19C487.17,6.37 487.26,8.28 487.27,9.98L488,184C488,187.93 487.82,192.35 484.66,195C481.5,197.65 474.66,196 475.3,192.09M361.3,187.48C363.42,185.63 363.48,182.67 363.41,180.03C361.902,125.663 364.061,71.257 369.87,17.18C370.28,13.33 364.44,11.72 360.07,11.76C355.7,11.8 350,11.21 349.13,7.41C348.56,4.74 351.29,2.24 354.28,1.62C357.27,1 360.36,1.71 363.34,2.34C382.024,6.302 401.228,7.201 420.2,5C428.14,4.08 435.64,9.46 438.9,15.94C442.16,22.42 442.16,29.78 442.1,36.87C441.647,86.163 441.197,135.45 440.75,184.73C440.75,187.03 440.66,189.46 439.32,191.44C437.23,194.51 432.8,195.49 428.81,196.1C399.962,200.466 370.557,199.517 342.05,193.3C342.3,190.03 347.05,188.78 350.72,188.97C354.39,189.16 358.67,189.77 361.3,187.48M418.55,15.88C405.946,16.331 393.326,15.661 380.84,13.88C373.156,69.465 370.768,125.654 373.71,181.69C373.87,184.69 374.34,188.23 377.23,189.85C378.99,190.85 381.23,190.85 383.3,190.85L405.25,190.54C410.83,190.46 416.56,190.36 421.69,188.41C426.82,186.46 431.23,182.21 431.21,177.27L430.87,34.75C430.87,30.68 430.82,26.48 429.01,22.75C427.2,19.02 423.15,15.75 418.55,15.96M308.06,198.34C304.27,200.07 299.95,200.04 295.78,199.98L272,199.61C258.82,199.41 243.21,197.83 236.78,186.33C233.78,180.96 233.57,174.52 233.47,168.33C232.723,120.15 234.26,72.003 238.08,23.89C238.66,16.48 239.76,8.21 245.6,3.62C250.81,-0.45 258.11,-0.21 264.74,0.23L299.38,2.49C304.72,2.84 310.78,3.56 313.94,7.89C315.94,10.67 316.28,14.32 316.52,17.76C320.05,69.52 323.58,121.48 319.74,173.21C319.02,182.9 316.89,194.29 308.06,198.34M261.81,189.42C273.507,190.991 285.352,191.119 297.08,189.8C300.47,189.43 304.08,188.8 306.45,186.31C308.82,183.82 309.17,180.42 309.52,177.16C314.869,126.214 314.329,74.822 307.91,24C307.5,20.78 307.01,17.41 305.12,14.77C301.53,9.77 294.48,9.21 288.35,9.09L261.55,8.53C256.48,8.43 249.81,9.61 249.16,14.63C242.689,64.928 240.741,115.704 243.34,166.35C243.7,173.24 244.54,180.97 249.89,185.35C253.19,188.04 257.59,188.88 261.81,189.44M190.66,13.67L161,10.83C155.58,10.31 149.71,9.89 145.11,12.83C138.72,16.88 137.42,25.49 136.85,33.03C133.336,79.609 133.874,126.405 138.46,172.89C138.74,175.79 139.15,178.89 141.18,181.02C143.21,183.15 146.12,183.58 148.9,183.96C164.782,186.092 180.886,185.958 196.73,183.56C199.63,183.13 202.73,182.63 205.41,183.76C208.09,184.89 210.05,188.37 208.47,190.84C207.21,192.84 204.47,193.18 202.15,193.31C185.62,194.23 169.058,194.44 152.51,193.94C143.62,193.67 132.98,192.08 129.27,183.99C127.86,180.94 127.77,177.48 127.7,174.12C126.78,131.92 125.867,89.713 124.96,47.5C124.76,37.93 124.61,28.05 128.22,19.19C131.83,10.33 140.23,2.65 149.79,3L187.2,4.56C189.75,4.66 192.47,4.82 194.5,6.36C196.53,7.9 197.27,11.36 195.27,12.94C194.01,13.94 192.27,13.82 190.66,13.67M91.58,9.81L94.82,85.31C95.38,98.45 95.95,111.6 95.82,124.75C95.63,142.392 94.169,159.998 91.45,177.43C90.45,184.05 88.62,191.5 82.76,194.74C79.76,196.41 76.17,196.63 72.76,196.74C57.111,197.364 41.439,197.096 25.82,195.94C16.37,195.24 5.24,193.04 1.47,184.35C-0.11,180.83 0,176.82 0,173C1.153,119.953 2.287,66.92 3.4,13.9C3.47,10.77 3.68,7.28 5.94,5.11C8.2,2.94 13.11,3.93 13.05,7.06C11.99,60.64 10.927,114.223 9.86,167.81C9.75,173.07 9.86,178.94 13.57,182.69C17.28,186.44 22.92,186.69 28.07,186.69L67.84,187.16C71.14,187.16 74.67,187.16 77.42,185.35C80.94,183.01 82.14,178.48 82.95,174.35C93.2,122 84.07,68 83.24,14.69C83.24,12.19 83.24,9.5 84.76,7.52C86.28,5.54 89.84,5.05 91.06,7.23C91.429,8.039 91.607,8.922 91.58,9.81" style="fill-rule:nonzero;"/>
</svg>

<svg xmlns="http://www.w3.org/2000/svg" xml:space="preserve" style="fill-rule:evenodd;clip-rule:evenodd;stroke-linejoin:round;stroke-miterlimit:2" viewBox="0 0 617 200"><path d="M524.31 179.22a876.995 876.995 0 0 0 3-153.11c-.58-8.59 7.12-16.19 16-19.22 8.88-3.03 18.61-2.51 28-1.94L597 6.47c3.68.22 7.68.56 10.37 2.85 2.23 1.9 3.09 4.73 3.77 7.44 13.78 54.4-3.66 111.32 1.15 167 .27 3.12.58 6.4-.84 9.25-1.42 2.85-5.27 5-8.37 3.6-3.72-1.65-3.58-6.44-3-10.17a214.094 214.094 0 0 0 2-52.55c-.15-1.69-.39-3.54-1.72-4.74-1.33-1.2-3-1.36-4.72-1.55a237.17 237.17 0 0 0-58.75.53 395.302 395.302 0 0 1-4.26 69c-7.89-.83-9.19-10.68-8.42-17.87m75.37-62.72a6.182 6.182 0 0 0 2.36-.38c1.57-.73 2-2.56 2.2-4.16a277.586 277.586 0 0 0-2-86.91c-.41-2.2-1-4.61-2.89-6-1.56-1.13-3.68-1.33-5.67-1.49l-27-2.12c-5.9-.47-12-.91-17.6.87-5.6 1.78-10.55 6.41-10.37 11.8 1 30 2.06 60.07-1.55 89.88l32.14-.76 30.29-.72m-124.2 75.52c9.57-59-1.38-119.12 1.7-178.69.13-2.42.33-5 1.9-7 1.57-2 5-2.88 6.93-1.19 1.35 1.18 1.44 3.09 1.45 4.79L488 184c0 3.93-.18 8.35-3.34 11-3.16 2.65-10 1-9.36-2.91m-114-4.61c2.12-1.85 2.18-4.81 2.11-7.45a1210.476 1210.476 0 0 1 6.46-162.85c.41-3.85-5.43-5.46-9.8-5.42-4.37.04-10.07-.55-10.94-4.35-.57-2.67 2.16-5.17 5.15-5.79 2.99-.62 6.08.09 9.06.72A176.212 176.212 0 0 0 420.2 5c7.94-.92 15.44 4.46 18.7 10.94 3.26 6.48 3.26 13.84 3.2 20.93-.453 49.293-.903 98.58-1.35 147.86 0 2.3-.09 4.73-1.43 6.71-2.09 3.07-6.52 4.05-10.51 4.66a239.197 239.197 0 0 1-86.76-2.8c.25-3.27 5-4.52 8.67-4.33 3.67.19 7.95.8 10.58-1.49m57.25-171.6a213.092 213.092 0 0 1-37.71-2 886.167 886.167 0 0 0-7.13 167.81c.16 3 .63 6.54 3.52 8.16 1.76 1 4 1 6.07 1l21.95-.31c5.58-.08 11.31-.18 16.44-2.13 5.13-1.95 9.54-6.2 9.52-11.14l-.34-142.52c0-4.07-.05-8.27-1.86-12-1.81-3.73-5.86-7-10.46-6.79M308.06 198.34c-3.79 1.73-8.11 1.7-12.28 1.64l-23.78-.37c-13.18-.2-28.79-1.78-35.22-13.28-3-5.37-3.21-11.81-3.31-18-.747-48.18.79-96.327 4.61-144.44.58-7.41 1.68-15.68 7.52-20.27 5.21-4.07 12.51-3.83 19.14-3.39l34.64 2.26c5.34.35 11.4 1.07 14.56 5.4 2 2.78 2.34 6.43 2.58 9.87 3.53 51.76 7.06 103.72 3.22 155.45-.72 9.69-2.85 21.08-11.68 25.13m-46.25-8.92a144.03 144.03 0 0 0 35.27.38c3.39-.37 7-1 9.37-3.49 2.37-2.49 2.72-5.89 3.07-9.15A666.7 666.7 0 0 0 307.91 24c-.41-3.22-.9-6.59-2.79-9.23-3.59-5-10.64-5.56-16.77-5.68l-26.8-.56c-5.07-.1-11.74 1.08-12.39 6.1a848.298 848.298 0 0 0-5.82 151.72c.36 6.89 1.2 14.62 6.55 19 3.3 2.69 7.7 3.53 11.92 4.09M190.66 13.67 161 10.83c-5.42-.52-11.29-.94-15.89 2-6.39 4.05-7.69 12.66-8.26 20.2a806.543 806.543 0 0 0 1.61 139.86c.28 2.9.69 6 2.72 8.13 2.03 2.13 4.94 2.56 7.72 2.94a169.193 169.193 0 0 0 47.83-.4c2.9-.43 6-.93 8.68.2 2.68 1.13 4.64 4.61 3.06 7.08-1.26 2-4 2.34-6.32 2.47-16.53.92-33.092 1.13-49.64.63-8.89-.27-19.53-1.86-23.24-9.95-1.41-3.05-1.5-6.51-1.57-9.87-.92-42.2-1.833-84.407-2.74-126.62-.2-9.57-.35-19.45 3.26-28.31S140.23 2.65 149.79 3l37.41 1.56c2.55.1 5.27.26 7.3 1.8 2.03 1.54 2.77 5 .77 6.58-1.26 1-3 .88-4.61.73M91.58 9.81l3.24 75.5c.56 13.14 1.13 26.29 1 39.44a367.51 367.51 0 0 1-4.37 52.68c-1 6.62-2.83 14.07-8.69 17.31-3 1.67-6.59 1.89-10 2a413.01 413.01 0 0 1-46.94-.8c-9.45-.7-20.58-2.9-24.35-11.59C-.11 180.83 0 176.82 0 173 1.153 119.953 2.287 66.92 3.4 13.9c.07-3.13.28-6.62 2.54-8.79 2.26-2.17 7.17-1.18 7.11 1.95-1.06 53.58-2.123 107.163-3.19 160.75-.11 5.26 0 11.13 3.71 14.88s9.35 4 14.5 4l39.77.47c3.3 0 6.83 0 9.58-1.81 3.52-2.34 4.72-6.87 5.53-11C93.2 122 84.07 68 83.24 14.69c0-2.5 0-5.19 1.52-7.17 1.52-1.98 5.08-2.47 6.3-.29.369.809.547 1.692.52 2.58" style="fill-rule:nonzero"/></svg>
